web/src/assets/logo.svg

<svg width="42" height="43" viewBox="0 0 42 43" fill="none" xmlns="http://www.w3.org/2000/svg">
<path d="M31.5698 2.36509C32.0835 2.36509 32.5 1.94725 32.5 1.43181C32.5 0.916377 32.0835 0.498535 31.5698 0.498535C31.0561 0.498535 30.6396 0.916377 30.6396 1.43181C30.6396 1.94725 31.0561 2.36509 31.5698 2.36509Z" fill="#3F3D56"/>
<path d="M31.5698 9.74644C32.0835 9.74644 32.5 9.3286 32.5 8.81316C32.5 8.29772 32.0835 7.87988 31.5698 7.87988C31.0561 7.87988 30.6396 8.29772 30.6396 8.81316C30.6396 9.3286 31.0561 9.74644 31.5698 9.74644Z" fill="#3F3D56"/>
<path d="M40.8713 11.613C41.385 11.613 41.8015 11.1952 41.8015 10.6797C41.8015 10.1643 41.385 9.74646 40.8713 9.74646C40.3576 9.74646 39.9412 10.1643 39.9412 10.6797C39.9412 11.1952 40.3576 11.613 40.8713 11.613Z" fill="#3F3D56"/>
<path d="M39.3421 14.7653C38.9537 14.1225 37.5969 14.1391 37.5969 14.1391C36.3615 15.9807 33.3921 14.0245 33.3921 14.0245C31.1866 15.0145 29.8409 11.8595 29.8409 11.8595C26.8733 11.4143 27.3318 8.28708 27.3318 8.28708C25.8553 7.98966 26.2696 5.31129 26.2696 5.31129C26.2696 5.31129 27.0889 4.6371 26.6857 4.1439C26.4294 3.83035 26.4135 2.93048 26.4359 2.31616C24.5092 1.72825 22.5063 1.4302 20.4925 1.43171C9.23764 1.43171 0.11377 10.5862 0.11377 21.8789C0.11377 33.1716 9.23764 42.3262 20.4925 42.3262C31.7474 42.3262 40.8713 33.1716 40.8713 21.8789C40.8737 19.4256 40.4351 16.992 39.5765 14.6949C39.4719 14.8133 39.3908 14.8459 39.3421 14.7653Z" fill="#3F3D56"/>
<path d="M38.1343 14.6846C37.7649 14.0732 36.4745 14.089 36.4745 14.089C35.2997 15.8405 32.4756 13.98 32.4756 13.98C30.3781 14.9216 29.0983 11.921 29.0983 11.921C26.2759 11.4976 26.712 8.52346 26.712 8.52346C25.3078 8.2406 25.7018 5.69334 25.7018 5.69334C25.7018 5.69334 26.4809 5.05215 26.0975 4.5831C25.8537 4.2849 25.8386 3.42907 25.8599 2.84483C24.0275 2.2857 22.1227 2.00223 20.2075 2.00367C9.50355 2.00367 0.826294 10.7101 0.826294 21.45C0.826294 32.1899 9.50355 40.8963 20.2075 40.8963C30.9114 40.8963 39.5886 32.1899 39.5886 21.45C39.591 19.1168 39.1738 16.8022 38.3572 14.6176C38.2578 14.7302 38.1806 14.7612 38.1343 14.6846Z" fill="#3F3D56"/>
<path d="M17.8933 13.4997C17.8933 13.4997 14.5512 11.3657 11.3609 13.4997C10.2443 14.2466 9.68601 15.3109 9.43198 16.379C8.98032 18.278 9.47565 20.2801 10.6834 21.8108L17.9007 30.958C18.1482 31.2766 18.48 31.519 18.8584 31.6573C19.2367 31.7956 19.6461 31.8244 20.04 31.7402C20.0556 31.7367 20.0713 31.733 20.0871 31.7292C20.3723 31.6588 20.6401 31.5305 20.874 31.3523C21.108 31.1741 21.303 30.9497 21.4472 30.693L26.4666 21.849C27.3951 20.2384 27.7758 18.3682 27.5509 16.5213C27.3155 14.7024 26.445 12.7852 23.97 12.1278C23.97 12.1278 21.0836 10.9084 17.8933 13.4997Z" fill="#F9A109"/>
<path opacity="0.1" d="M17.8933 13.4997C17.8933 13.4997 14.5512 11.3657 11.3609 13.4997C10.2443 14.2466 9.68601 15.3109 9.43198 16.379C8.98032 18.278 9.47565 20.2801 10.6834 21.8108L17.9007 30.958C18.1482 31.2766 18.48 31.519 18.8584 31.6573C19.2367 31.7956 19.6461 31.8244 20.04 31.7402C20.0556 31.7367 20.0713 31.733 20.0871 31.7292C20.3723 31.6588 20.6401 31.5305 20.874 31.3523C21.108 31.1741 21.303 30.9497 21.4472 30.693L26.4666 21.849C27.3951 20.2384 27.7758 18.3682 27.5509 16.5213C27.3155 14.7024 26.445 12.7852 23.97 12.1278C23.97 12.1278 21.0836 10.9084 17.8933 13.4997Z" fill="black"/>
<path d="M17.9273 14.0148C17.9273 14.0148 14.7921 12.013 11.7995 14.0148C10.752 14.7154 10.2283 15.7138 9.99001 16.7157C9.56632 18.4972 10.031 20.3752 11.1639 21.8112L17.9342 30.3918C18.1664 30.6908 18.4777 30.9181 18.8326 31.0479C19.1875 31.1776 19.5716 31.2046 19.941 31.1256C19.9557 31.1223 19.9704 31.1189 19.9853 31.1153C20.2528 31.0492 20.504 30.9289 20.7234 30.7617C20.9429 30.5946 21.1259 30.3841 21.2611 30.1433L25.9696 21.847C26.8407 20.3361 27.1977 18.5818 26.9868 16.8492C26.766 15.143 25.9494 13.3445 23.6277 12.7279C23.6277 12.7279 20.92 11.584 17.9273 14.0148Z" fill="#F9A109"/>
<path opacity="0.1" d="M18.0494 17.4471C18.0494 17.4471 16.524 16.4732 15.068 17.4471C14.6159 17.7541 14.3003 18.2253 14.1877 18.7612C14.0902 19.1909 14.0909 19.6371 14.1899 20.0665C14.2888 20.4958 14.4833 20.8971 14.7588 21.2403C14.7588 21.2403 18.664 25.854 19.0291 25.772C19.0362 25.7704 19.0434 25.7687 19.0506 25.767C19.3137 25.7036 21.9622 21.2577 21.9622 21.2577C22.386 20.5226 22.5597 19.6691 22.4571 18.8262C22.3496 17.9961 21.9523 17.121 20.8228 16.821C20.8228 16.821 19.5054 16.2645 18.0494 17.4471Z" fill="black"/>
<path opacity="0.1" d="M8.52185 24.7386L8.94938 25.4536L9.80436 26.8835L10.0894 27.8844L9.51939 28.7423L10.2319 30.4582L10.5169 31.4591L9.94692 32.031L11.087 32.8889" fill="black"/>
<path opacity="0.1" d="M29.4705 18.4473V19.5912L28.758 21.45L28.3304 22.4509L29.043 23.7378L29.3281 24.5958L30.4681 25.0247L30.8956 25.7397V27.4555" fill="black"/>
<path opacity="0.1" d="M36.7385 19.5912L35.5985 20.3061C35.5985 20.3061 35.0284 20.5921 35.0284 20.7351V21.879" fill="black"/>
<path opacity="0.1" d="M31.6083 15.5876L31.8932 17.0175L31.6083 18.0184" fill="black"/>
<path opacity="0.1" d="M32.7482 28.4565L31.8932 29.7433L30.8956 30.6012V31.1732L31.4656 31.8881V32.7461L31.0381 33.604" fill="black"/>
<path opacity="0.1" d="M24.6253 4.14856H23.2002L22.0601 5.14946L20.2075 6.15035L19.3524 6.86533V7.15133L17.4998 8.15223L16.9298 9.15313" fill="black"/>
<path opacity="0.1" d="M9.23428 6.57916L7.95171 9.15294L7.52418 10.1539L6.52662 11.4407C6.52662 11.4407 5.81407 12.7276 5.67156 12.8706C5.52905 13.0136 4.53149 13.2996 4.53149 13.2996L5.95658 14.7295" fill="black"/>
<path opacity="0.1" d="M3.53402 16.4454L3.24897 18.3043L3.53402 19.4482V21.45L2.67896 25.1677L3.53402 26.1686L4.53156 27.4555" fill="black"/>
<path opacity="0.1" d="M5.67163 17.3035L6.52669 17.7324L7.09671 19.5913L8.23682 19.3053L8.80683 20.3062" fill="black"/>
<path opacity="0.1" d="M21.3475 35.8918L23.6277 35.6058L24.6252 34.6049H26.0503" fill="black"/>
<path opacity="0.1" d="M7.52417 32.889L8.37923 33.8899L9.80431 34.3189L10.8019 34.6049L11.0869 36.1777" fill="black"/>
<path opacity="0.1" d="M24.3402 28.0274L25.3378 27.3125L25.7654 26.1685L26.6204 26.0256L27.0479 24.5957" fill="black"/>
</svg>

<svg width="42" height="43" viewBox="0 0 42 43" fill="none" xmlns="http://www.w3.org/2000/svg"><path d="M31.57 2.365c.514 0 .93-.418.93-.933a.932.932 0 0 0-.93-.933.932.932 0 0 0-.93.933c0 .515.416.933.93.933Zm0 7.381a.93.93 0 0 0 .93-.933.932.932 0 0 0-.93-.933.932.932 0 0 0-.93.933.93.93 0 0 0 .93.933Zm9.301 1.867c.514 0 .93-.418.93-.933a.932.932 0 0 0-.93-.934.932.932 0 0 0-.93.934c0 .515.417.933.93.933Z" fill="#3F3D56"/><path d="M39.342 14.765c-.388-.643-1.745-.626-1.745-.626-1.236 1.842-4.205-.114-4.205-.114-2.205.99-3.551-2.165-3.551-2.165-2.968-.446-2.51-3.573-2.51-3.573-1.476-.297-1.061-2.976-1.061-2.976s.819-.674.416-1.167c-.257-.314-.273-1.214-.25-1.828a20.311 20.311 0 0 0-5.944-.884C9.239 1.432.114 10.586.114 21.879s9.124 20.447 20.378 20.447c11.255 0 20.38-9.154 20.38-20.447a20.462 20.462 0 0 0-1.295-7.184c-.105.118-.186.15-.235.07Z" fill="#3F3D56"/><path d="M38.134 14.685c-.37-.612-1.66-.596-1.66-.596-1.174 1.752-3.998-.109-3.998-.109-2.098.942-3.378-2.059-3.378-2.059-2.822-.423-2.386-3.398-2.386-3.398-1.404-.282-1.01-2.83-1.01-2.83s.779-.64.395-1.11c-.243-.298-.258-1.154-.237-1.738a19.317 19.317 0 0 0-5.652-.841C9.503 2.004.825 10.71.825 21.45c0 10.74 8.678 19.446 19.381 19.446 10.704 0 19.382-8.706 19.382-19.446a19.458 19.458 0 0 0-1.232-6.832c-.1.112-.176.143-.223.067Z" fill="#3F3D56"/><path d="M17.893 13.5s-3.342-2.134-6.532 0c-1.117.747-1.675 1.81-1.929 2.879-.452 1.899.044 3.901 1.251 5.432l7.218 9.147a2.146 2.146 0 0 0 2.186.771 2.148 2.148 0 0 0 1.36-1.036l5.02-8.844a8.59 8.59 0 0 0 1.084-5.328c-.235-1.819-1.106-3.736-3.581-4.393 0 0-2.886-1.22-6.077 1.372Z" fill="#F9A109"/><path opacity=".1" d="M17.893 13.5s-3.342-2.134-6.532 0c-1.117.747-1.675 1.81-1.929 2.879-.452 1.899.044 3.901 1.251 5.432l7.218 9.147a2.146 2.146 0 0 0 2.186.771 2.148 2.148 0 0 0 1.36-1.036l5.02-8.844a8.59 8.59 0 0 0 1.084-5.328c-.235-1.819-1.106-3.736-3.581-4.393 0 0-2.886-1.22-6.077 1.372Z" fill="#000"/><path d="M17.927 14.015s-3.135-2.002-6.127 0c-1.048.7-1.572 1.699-1.81 2.7-.424 1.782.041 3.66 1.174 5.096l6.77 8.58a2.013 2.013 0 0 0 2.051.724 2.015 2.015 0 0 0 1.276-.972l4.709-8.296a8.058 8.058 0 0 0 1.017-4.998c-.221-1.706-1.038-3.505-3.36-4.121 0 0-2.707-1.144-5.7 1.287Z" fill="#F9A109"/><path opacity=".1" d="M18.05 17.447s-1.526-.974-2.982 0a2.113 2.113 0 0 0-.88 1.314 2.927 2.927 0 0 0 .57 2.48s3.906 4.613 4.271 4.531l.022-.005c.263-.063 2.911-4.51 2.911-4.51a3.92 3.92 0 0 0 .495-2.43c-.107-.83-.505-1.706-1.634-2.006 0 0-1.318-.556-2.774.626Zm-9.528 7.292.427.715.855 1.43.285 1-.57.858.713 1.716.285 1.001-.57.572 1.14.858M29.47 18.447v1.144l-.712 1.859-.428 1 .713 1.288.285.858 1.14.429.428.715v1.716m5.843-7.865-1.14.715s-.57.286-.57.43v1.143m-3.421-6.291.285 1.43-.285 1m1.14 10.438-.855 1.287-.997.858v.572l.57.715v.858l-.428.858M24.625 4.149H23.2l-1.14 1-1.852 1.001-.856.715v.286L17.5 8.152l-.57 1.001M9.234 6.58 7.952 9.152l-.428 1-.997 1.288s-.713 1.287-.855 1.43c-.143.143-1.14.429-1.14.429l1.425 1.43m-2.423 1.716-.285 1.86.285 1.143v2.002l-.855 3.718.855 1 .998 1.288m1.14-10.153.855.43.57 1.858 1.14-.286.57 1.001m12.541 15.586 2.28-.286.997-1.001h1.425M7.524 32.889l.855 1 1.425.43.998.286.285 1.573m13.253-8.151.998-.715.427-1.143.855-.143.428-1.43" fill="#000"/></svg>
